public/svg/sass.svg

<?xml version="1.0" encoding="UTF-8"?>
<svg fill="none" viewBox="0 0 24 24" xmlns="http://www.w3.org/2000/svg">
<title>Sass icon</title>
<path d="m16.372 2.1497c1.2776 0.23395 2.5592 0.8091 3.1805 1.9925 0.6402 1.2193 0.5731 2.4058 0.0408 3.4047-0.5031 0.94428-1.3794 1.65-2.2625 2.1241-0.8896 0.47759-1.8923 0.77799-2.7714 0.83679-0.4376 0.0293-0.8977 0.0024-1.3157-0.1325-0.4207-0.1358-0.8835-0.41274-1.1401-0.93253-0.2446-0.4952-0.0414-1.0949 0.4538-1.3394 0.4645-0.22934 1.0208-0.06484 1.2899 0.36502 0.0033 0.00113 0.0068 0.00231 0.0106 0.00354 0.0987 0.03186 0.2858 0.05926 0.568 0.04037 0.5607-0.03752 1.2885-0.2435 1.9588-0.60339 0.6768-0.36333 1.1897-0.82615 1.4436-1.3025 0.2247-0.42174 0.2823-0.90802-0.0466-1.5345-0.2004-0.38181-0.7376-0.76585-1.7699-0.95489-0.9981-0.18277-2.2645-0.14018-3.5646 0.13026-1.2967 0.26974-2.5632 0.75302-3.5672 1.3967-1.0138 0.64995-1.6746 1.4061-1.9284 2.1897-0.27463 0.84767-0.17729 1.4443 0.07001 1.9343 0.27127 0.53749 0.7681 1.0353 1.4532 1.5682 0.33157 0.258 0.68361 0.5068 1.0546 0.7691l0.02015 0.0143c0.37081 0.2621 0.76222 0.5392 1.1281 0.8281 0.3081 0.2433 0.6229 0.5133 0.9111 0.8171 1.2933-0.2494 2.4138-0.2223 3.332 0.1977 1.1823 0.5407 1.775 1.6063 2.0538 2.8124 0.1244 0.5381-0.211 1.0751-0.7491 1.1995s-1.0751-0.211-1.1995-0.7491c-0.2001-0.8659-0.5271-1.2565-0.937-1.444-0.3005-0.1374-0.7493-0.2157-1.4173-0.155 0.616 2.1653-0.4595 4.1262-1.7762 5.237-0.7093 0.5984-1.5777 1.0345-2.4457 1.1211-0.90791 0.0907-1.8779-0.2138-2.4471-1.1616-0.50264-0.8369-0.50663-1.7268-0.24445-2.5192 0.25225-0.7623 0.75044-1.4485 1.2962-2.0165 0.68598-0.714 1.5488-1.3444 2.3671-1.7829-0.31308-0.2463-0.65568-0.4894-1.0265-0.7515l-0.03546-0.0251c-0.3597-0.2542-0.74455-0.5262-1.1129-0.8128-0.75108-0.5843-1.5353-1.3039-2.0106-2.2457-0.49928-0.98929-0.61409-2.134-0.18714-3.4518 0.4477-1.3818 1.5157-2.4646 2.7517-3.257 1.2458-0.79869 2.7501-1.3613 4.2394-1.6711 1.4858-0.30908 3.0203-0.37969 4.3321-0.13947zm-5.6498 13.94c-0.6732 0.3055-1.5488 0.8782-2.2256 1.5826-0.42959 0.4472-0.71504 0.8825-0.83965 1.2592-0.11469 0.3466-0.08877 0.6131 0.06023 0.8612 0.08247 0.1373 0.20884 0.2337 0.53388 0.2012 0.36491-0.0364 0.86604-0.2473 1.3548-0.6596 0.93534-0.7891 1.5016-2.0097 1.1164-3.2446zm3.0901-7.6361c0-1e-5 6e-4 2.9e-4 0.0017 9.5e-4z" clip-rule="evenodd" fill="#CE6B9C" fill-rule="evenodd" style="--darkreader-inline-fill:#7f2a54" data-darkreader-inline-fill=""/>
</svg>

<svg viewBox="0 0 24 24" fill="none" xmlns="http://www.w3.org/2000/svg"><g id="SVGRepo_bgCarrier" stroke-width="0"></g><g id="SVGRepo_tracerCarrier" stroke-linecap="round" stroke-linejoin="round"></g><g id="SVGRepo_iconCarrier"> <path fill-rule="evenodd" clip-rule="evenodd" d="M16.3718 2.14967C17.6494 2.38362 18.931 2.95877 19.5523 4.14219C20.1925 5.36153 20.1254 6.54799 19.5931 7.54688C19.09 8.49116 18.2137 9.19688 17.3306 9.67101C16.441 10.1486 15.4383 10.449 14.5592 10.5078C14.1216 10.5371 13.6615 10.5102 13.2435 10.3753C12.8228 10.2395 12.36 9.96256 12.1034 9.44277C11.8588 8.94757 12.062 8.3479 12.5572 8.10336C13.0217 7.87402 13.578 8.03852 13.8471 8.46838C13.8504 8.46951 13.8539 8.47069 13.8577 8.47192C13.9564 8.50378 14.1435 8.53118 14.4257 8.51229C14.9864 8.47477 15.7142 8.26879 16.3845 7.9089C17.0613 7.54557 17.5742 7.08275 17.8281 6.60638C18.0528 6.18464 18.1104 5.69836 17.7815 5.07185C17.5811 4.69004 17.0439 4.306 16.0116 4.11696C15.0135 3.93419 13.7471 3.97678 12.447 4.24722C11.1503 4.51696 9.88376 5.00024 8.87976 5.64391C7.86596 6.29386 7.2052 7.04998 6.95131 7.8336C6.67668 8.68127 6.77402 9.27789 7.02132 9.76791C7.29259 10.3054 7.78942 10.8032 8.47449 11.3361C8.80606 11.5941 9.1581 11.8429 9.52913 12.1052L9.54928 12.1195C9.92009 12.3816 10.3115 12.6587 10.6774 12.9476C10.9855 13.1909 11.3003 13.4609 11.5885 13.7647C12.8818 13.5153 14.0023 13.5424 14.9205 13.9624C16.1028 14.5031 16.6955 15.5687 16.9743 16.7748C17.0987 17.3129 16.7633 17.8499 16.2252 17.9743C15.6871 18.0987 15.1501 17.7633 15.0257 17.2252C14.8256 16.3593 14.4986 15.9687 14.0887 15.7812C13.7882 15.6438 13.3394 15.5655 12.6714 15.6262C13.2874 17.7915 12.2119 19.7524 10.8952 20.8632C10.1859 21.4616 9.31751 21.8977 8.44947 21.9843C7.54156 22.075 6.57156 21.7705 6.00238 20.8227C5.49974 19.9858 5.49575 19.0959 5.75793 18.3035C6.01018 17.5412 6.50837 16.855 7.05418 16.287C7.74016 15.573 8.60299 14.9426 9.42126 14.5041C9.10818 14.2578 8.76558 14.0147 8.3948 13.7526L8.35934 13.7275C7.99964 13.4733 7.61479 13.2013 7.24641 12.9147C6.49533 12.3304 5.71114 11.6108 5.23582 10.669C4.73654 9.67971 4.62173 8.53497 5.04868 7.21717C5.49638 5.83533 6.56434 4.75261 7.80034 3.96021C9.04614 3.16152 10.5504 2.59894 12.0397 2.28914C13.5255 1.98006 15.06 1.90945 16.3718 2.14967ZM10.722 16.09C10.0488 16.3955 9.17323 16.9682 8.49635 17.6726C8.06676 18.1198 7.78131 18.5551 7.6567 18.9318C7.54201 19.2784 7.56793 19.5449 7.71693 19.793C7.7994 19.9303 7.92577 20.0267 8.25081 19.9942C8.61572 19.9578 9.11685 19.7469 9.60556 19.3346C10.5409 18.5455 11.1072 17.3249 10.722 16.09ZM13.8121 8.45393C13.8121 8.45392 13.8127 8.45422 13.8138 8.45488Z" fill="#CE6B9C" data-darkreader-inline-fill="" style="--darkreader-inline-fill: #7f2a54;"></path> </g></svg>
